X:1
T:Be with Us Still
T:Be with Us Still
T:Charles Hutchinson Gabriel
T:Warren R. Fitch, 1906
T:Public Domain Courtesy of the Cyber Hymnal™
T:Public Domain Courtesy of the Cyber Hymnal™
C:Charles Hutchinson Gabriel
Z:Public Domain
Z:Courtesy of the Cyber Hymnal™
%%score ( 1 2 ) ( 3 4 )
L:1/8
Q:1/4=95
M:3/4
K:Bb
V:1 treble-8 
V:2 treble-8 
V:3 bass 
V:4 bass 
V:1
 F[FB] [Fc] | [Bd]3 [Bd] [Bc][=Bd] | [ce]3 [ce] [ce][ce] | [Ae][Ae] [Ad]2 [Ac]2 | %4
w: 1.~God of all|might, our fa- thers’|God, This land we|love be- longs to|
w: 2.~In free- dom’s|cause our fa- thers|fought And crossed the|wild and storm- y|
w: 3.~By greed of|power or lust of|gain May we be|tempt- ed nev- er-|
w: 4.~If for an|em- pire we will|seek Still o- ther|lands be- yond the|
 [Bd]3 F [FB][Ac] | [Bd]3 [Bd] [Bc][=Bd] | [ce]3 [B=e] [Be][Be] | [Bf][=Bf] [cf]2 [c=e]2 | %8
w: Thee, From shores the|pil- grims’ feet first|trod, Far west- ward|stretch- ing to the|
w: deep; The price- less|boon which here they|bought, May we, their|child- ren, ev- er|
w: more! For- bid, O|Lord, that we should|stain Fair free- dom’s|flag with hu- man|
w: sea, We’ll wait, O|Lord, till Thou dost|speak, For Thou wouldst|have all peo- ple|
 [cf]4 z | f ||[M:4/4] e'[bd'] c'3 [^g=b][ac'][gb] | [ac']ff'[c'e'] d'3 [b^c'] | %12
w: sea;|Lest|in our van- i- ty and|pride We cease to do Thy|
w: keep;|That|as a na- tion strong we|may Our high- est des- ti-|
w: gore|For|sake of con- quest; ra- ther,|let Christ’s ten- der love our|
w: free;|O|let us not, in free- dom’s|name, Go forth to pil- lage,|
 [bd'][b^c'][bd']b (z [bf']) x3 | [ae'][bd']c'[bc'] !fermata![c'f']fa[ac'] |[M:3/4] e'3 f a[c'e'] | %15
w: right- eous will, And *|from the right now turn a- side, *||
w: ny ful- fill, Nor *|fool- ish- ly go far a- stray. Be|with us still! Be|
w: bo- soms fill; Lest *|in our fol- ly we for- get, *||
w: burn and kill; Lest *|for such deeds we blush with shame. *||
 d'3"^riten." [d'f'] [e'f'][c'f'] | [bf'][be'] [bd']2 c'2 | [fb]3 |] %18
w: |||
w: with us still! God|of all might be|with|
w: |||
w: |||
V:2
 F x2 | x6 | x6 | x6 | x3 F x2 | x6 | x6 | x6 | x5 | x ||[M:4/4] x2 (aa a) x3 | x4 (bbb) x | %12
 x4 (f'3 e'e') | x2 c' x5 |[M:3/4] (c'c' c') x3 | (bb b) x3 | x4 (af) | x3 |] %18
V:3
 [B,,D,][B,,D,] [B,,E,] | [B,,F,]3 [B,,F,] [E,G,][D,G,] | [C,G,]3 [B,,_G,] [A,,F,][_G,,F,] | %3
w: ~ ~ ~|~ ~ ~ ~|~ ~ ~ ~|
 [F,,F,][F,,G,] [F,,F,]2 [F,,F,]2 | [B,,F,]3 [E,F,] [D,F,][C,F,] | [B,,F,]3 [B,,F,] [E,G,][D,G,] | %6
w: ~ ~ ~ ~|~ ~ ~ ~|~ ~ ~ ~|
 [C,G,]3 [^C,G,] [C,G,][C,G,] | [D,B,][_D,^G,] [C,A,]2 [C,B,]2 | [F,,A,]4 z | z || %10
w: ~ ~ ~ ~|~ ~ ~ ~|~||
[M:4/4] z [F,,F,] ([F,,F,][F,,F,] [F,,E,])[F,,D,][F,,E,][F,,D,] | %11
w: ~ ~ * * ~ ~ ~|
 [F,,E,] z2 [F,,A,] ([B,,F,][B,,F,][B,,F,])[B,,=E,] | %12
w: ~ ~ ~ * * ~|
 [B,,F,][B,,=E,][B,,F,] z2 ([_E,B,][E,B,])[D,B,] x | %13
w: ~ ~ ~ ~ * ~|
 [C,F,][B,,F,][A,,F,][G,,=E,] !fermata![F,,A,] z2 F, |[M:3/4] [F,A,][F,A,] [F,A,] z2 [F,,A,] | %15
w: ~ ~ ~ ~ ~ Be|with us still! Be|
 [B,,F,][B,,F,] [B,,F,][=B,,^G,] [C,A,][E,A,] | [D,_A,][E,G,] F,2 [F,,E,]2 | [B,,D,]3 |] %18
w: with us still! * * *|||
V:4
 x3 | x6 | x6 | x6 | x6 | x6 | x6 | x6 | x5 | x ||[M:4/4] x8 | x8 | x9 | x7 F, |[M:3/4] x6 | x6 | %16
 x2 F,2 x2 | x3 |] %18

